X:245
T:B245-  Jig a Jog-Goo
Q:1/4=120
L:1/8
M:6/8
K:Dphrygian
B|A3/2B/2c F3/2G/2A|B,BF D2B|A3/2B/2c F3/2G/2A|\
BB,F D2B|A3/2B/2c F3/2G/2A|B3/2c/2d/2e/2 f3/2e/2d|\
cdB A3/2G/2A|B,BF D2|]

